src/sources/forus-platform/resources/_platform-common/assets/img/features/icons/iconnect-api/icon-4.svg

<svg width="59" height="58" viewBox="0 0 59 58" fill="none" xmlns="http://www.w3.org/2000/svg">
    <rect x="0.5" width="58" height="58" rx="8" fill="#F7F9FC"/>
    <path fill-rule="evenodd" clip-rule="evenodd" d="M41.8543 43.3158H17.1441C16.1794 43.3161 15.254 42.9314 14.5708 42.2462C13.8877 41.561 13.5026 40.6311 13.5 39.6606V18.3392C13.5026 17.3687 13.8878 16.4389 14.5709 15.7537C15.254 15.0685 16.1794 14.6839 17.1441 14.6842H41.8543C42.8192 14.6835 43.745 15.068 44.4285 15.7533C45.112 16.4385 45.4973 17.3686 45.5 18.3394V39.6606C45.4973 40.6314 45.112 41.5615 44.4285 42.2467C43.745 42.932 42.8192 43.3165 41.8543 43.3158Z" fill="#092DAA"/>
    <path fill-rule="evenodd" clip-rule="evenodd" d="M17.1445 16.2318C16.5883 16.2316 16.0547 16.4533 15.6607 16.8484C15.2667 17.2434 15.0446 17.7796 15.043 18.3392V39.6606C15.0446 40.2202 15.2667 40.7563 15.6607 41.1514C16.0547 41.5465 16.5883 41.7682 17.1445 41.768H41.8547C42.411 41.7682 42.9446 41.5465 43.3386 41.1514C43.7325 40.7563 43.9547 40.2202 43.9563 39.6606V18.3392C43.9547 17.7796 43.7325 17.2434 43.3386 16.8484C42.9446 16.4533 42.411 16.2316 41.8547 16.2318H17.1445Z" fill="#305DFC"/>
    <path fill-rule="evenodd" clip-rule="evenodd" d="M35.417 20.4876C35.2143 20.487 35.0163 20.4259 34.848 20.3121C34.6798 20.1984 34.5488 20.037 34.4717 19.8484C34.3946 19.6597 34.3747 19.4524 34.4146 19.2524C34.4546 19.0524 34.5525 18.8689 34.696 18.7249C34.8396 18.5809 35.0224 18.4829 35.2213 18.4434C35.4202 18.4038 35.6262 18.4244 35.8135 18.5026C36.0007 18.5808 36.1607 18.7131 36.2733 18.8827C36.3858 19.0523 36.4459 19.2517 36.4459 19.4557C36.4446 19.7295 36.3357 19.9918 36.143 20.1851C35.9502 20.3785 35.6892 20.4872 35.417 20.4876ZM37.9884 20.4876C37.7857 20.487 37.5877 20.4259 37.4194 20.3121C37.2512 20.1984 37.1202 20.037 37.043 19.8484C36.9659 19.6597 36.9461 19.4524 36.986 19.2524C37.026 19.0524 37.1239 18.8689 37.2674 18.7249C37.411 18.5809 37.5938 18.4829 37.7927 18.4434C37.9915 18.4038 38.1976 18.4244 38.3848 18.5026C38.5721 18.5808 38.7321 18.7131 38.8446 18.8827C38.9572 19.0523 39.0173 19.2517 39.0173 19.4557C39.016 19.7295 38.9071 19.9918 38.7144 20.1851C38.5216 20.3785 38.2606 20.4872 37.9884 20.4876ZM40.5614 20.4876C40.3587 20.487 40.1607 20.4259 39.9925 20.3121C39.8242 20.1984 39.6932 20.037 39.6161 19.8484C39.539 19.6597 39.5191 19.4524 39.559 19.2524C39.599 19.0524 39.6969 18.8689 39.8405 18.7249C39.9841 18.5809 40.1669 18.4829 40.3657 18.4434C40.5646 18.4038 40.7707 18.4244 40.9579 18.5026C41.1451 18.5808 41.3051 18.7131 41.4177 18.8827C41.5303 19.0523 41.5903 19.2517 41.5903 19.4557C41.5891 19.7295 41.4802 19.9918 41.2874 20.1851C41.0946 20.3785 40.8336 20.4872 40.5614 20.4876Z" fill="#E6ECFF"/>
    <path d="M39.231 29.7185C39.231 35.0565 34.9036 39.3836 29.5657 39.3836C24.2278 39.3836 19.9004 35.0565 19.9004 29.7185C19.9004 24.3805 24.2278 20.053 29.5657 20.053C34.9036 20.053 39.231 24.3805 39.231 29.7185Z" fill="url(#paint0_linear_735_62097)"/>
    <path d="M39.231 29.7185C39.231 35.0565 34.9036 39.3836 29.5657 39.3836C24.2278 39.3836 19.9004 35.0565 19.9004 29.7185C19.9004 24.3805 24.2278 20.053 29.5657 20.053C34.9036 20.053 39.231 24.3805 39.231 29.7185Z" fill="url(#paint1_linear_735_62097)"/>
    <path d="M35.4972 24.5867C34.8723 23.9404 33.8597 23.9404 33.2348 24.5867L29.566 28.3802L27.966 30.0347L25.8972 27.8955C25.2723 27.2493 24.2597 27.2493 23.6347 27.8955C23.0098 28.5417 23.0098 29.5887 23.6347 30.235L26.8347 33.5438C27.1472 33.867 27.5566 34.0285 27.9659 34.0285C28.3752 34.0285 28.7847 33.867 29.0971 33.5438L29.5659 33.059L35.497 26.9261C36.1223 26.2798 36.1223 25.2329 35.4972 24.5867Z" fill="white"/>
    <defs>
        <linearGradient id="paint0_linear_735_62097" x1="29.5657" y1="20.053" x2="29.5657" y2="39.3836" gradientUnits="userSpaceOnUse">
            <stop stop-color="#0A33C1"/>
            <stop offset="1" stop-color="#0A33C1" stop-opacity="0"/>
        </linearGradient>
        <linearGradient id="paint1_linear_735_62097" x1="29.5657" y1="20.053" x2="29.5657" y2="39.3836" gradientUnits="userSpaceOnUse">
            <stop stop-color="#0A33C1"/>
            <stop offset="1" stop-color="#0A33C1" stop-opacity="0"/>
        </linearGradient>
    </defs>
</svg>

<svg width="59" height="58" fill="none" xmlns="http://www.w3.org/2000/svg"><rect x=".5" width="58" height="58" rx="8" fill="#F7F9FC"/><path fill-rule="evenodd" clip-rule="evenodd" d="M41.854 43.316h-24.71c-.965 0-1.89-.385-2.573-1.07a3.676 3.676 0 0 1-1.071-2.585V18.339c.003-.97.388-1.9 1.07-2.585a3.632 3.632 0 0 1 2.574-1.07h24.71c.965 0 1.891.384 2.575 1.07a3.676 3.676 0 0 1 1.071 2.585v21.322c-.003.97-.388 1.9-1.072 2.586a3.632 3.632 0 0 1-2.574 1.069Z" fill="#092DAA"/><path fill-rule="evenodd" clip-rule="evenodd" d="M17.145 16.232c-.557 0-1.09.221-1.484.616a2.12 2.12 0 0 0-.618 1.491v21.322a2.12 2.12 0 0 0 .618 1.49c.394.395.927.617 1.484.617h24.71c.556 0 1.09-.221 1.484-.617a2.12 2.12 0 0 0 .617-1.49V18.339a2.12 2.12 0 0 0-.617-1.49 2.094 2.094 0 0 0-1.484-.617h-24.71Z" fill="#305DFC"/><path fill-rule="evenodd" clip-rule="evenodd" d="M35.417 20.488a1.021 1.021 0 0 1-.945-.64 1.039 1.039 0 0 1 .224-1.123 1.024 1.024 0 0 1 1.75.73 1.04 1.04 0 0 1-.303.73 1.027 1.027 0 0 1-.726.303Zm2.571 0a1.021 1.021 0 0 1-.945-.64 1.039 1.039 0 0 1 .224-1.123 1.024 1.024 0 0 1 1.75.73 1.04 1.04 0 0 1-.303.73 1.027 1.027 0 0 1-.726.303Zm2.573 0a1.02 1.02 0 0 1-.945-.64 1.039 1.039 0 0 1 .224-1.123 1.024 1.024 0 0 1 1.75.73 1.04 1.04 0 0 1-.303.73 1.027 1.027 0 0 1-.726.303Z" fill="#E6ECFF"/><path d="M39.231 29.718c0 5.338-4.327 9.666-9.665 9.666-5.338 0-9.666-4.328-9.666-9.666 0-5.337 4.328-9.665 9.666-9.665s9.665 4.328 9.665 9.665Z" fill="url(#a)"/><path d="M39.231 29.718c0 5.338-4.327 9.666-9.665 9.666-5.338 0-9.666-4.328-9.666-9.666 0-5.337 4.328-9.665 9.666-9.665s9.665 4.328 9.665 9.665Z" fill="url(#b)"/><path d="M35.497 24.587a1.562 1.562 0 0 0-2.262 0l-3.669 3.793-1.6 1.655-2.069-2.14a1.563 1.563 0 0 0-2.262 0 1.694 1.694 0 0 0 0 2.34l3.2 3.309c.312.323.722.485 1.13.485.41 0 .82-.162 1.132-.485l.469-.485 5.931-6.133a1.693 1.693 0 0 0 0-2.34Z" fill="#fff"/><defs><linearGradient id="a" x1="29.566" y1="20.053" x2="29.566" y2="39.384" gradientUnits="userSpaceOnUse"><stop stop-color="#0A33C1"/><stop offset="1" stop-color="#0A33C1" stop-opacity="0"/></linearGradient><linearGradient id="b" x1="29.566" y1="20.053" x2="29.566" y2="39.384" gradientUnits="userSpaceOnUse"><stop stop-color="#0A33C1"/><stop offset="1" stop-color="#0A33C1" stop-opacity="0"/></linearGradient></defs></svg>
